!!!COM:	Busnoys, Antoine
!!!CDT:	~1430///-1492/11/06
!!!OTL:	Quant j'ay au cueur
!!!AGN:	Song; Chanson
!!!SCT:	Bus3049
!!!SCA:	Bus3049
!!!voices:	3
**kern	**kern	**kern
*staff3	*staff2	*staff1
*Ivox	*Ivox	*Ivox
*I"Contra	*I"Tenor	*I"Superius
*I'C	*I'T	*I'S
*clefF4	*clefGv2	*clefG2
*k[]	*k[]	*k[]
*M3/1	*M3/1	*M3/1
*met(O)	*met(O)	*met(O)
=1-	=1-	=1-
!	!	!LO:TX:Z=22:t=Rondeau
0D	0d	1.a
.	.	2b
1A	1e	1cc
=2	=2	=2
0D	1.d	2.dd
.	.	4ee
.	.	1ff
.	1a	.
2A	.	4ee
.	.	2ee
2E	[2g	.
.	.	4dd
=3	=3	=3
2G	2g]	2b
1D	2f	1a
.	1d	.
2B-	.	1dd
1A	1e	.
.	.	2cc#i
=4	=4	=4
1D	1d	1dd
2r	2B	2g
2D	2A	2.a
2G	1d	.
.	.	4b
4F	.	4a
4G	.	8gL
.	.	8fJ
=5	=5	=5
1A	0.c	2e
.	.	1a
2F	.	.
2E	.	2g
1A	.	1e
=6	=6	=6
0D	2r	1d
.	1f	.
.	.	2r
.	2d	2.dd
1d	2.f	.
.	.	4cc
.	.	4dd
.	4g	4b
=7	=7	=7
0A	1e	1cc
.	2.a	2cc
.	.	2.ee
.	4g	.
1A	1e	.
.	.	4dd
.	.	4cc
.	.	4b
=8	=8	=8
0D	2f	1a
.	1d	.
.	.	2.ff
.	1a	.
.	.	8eeL
.	.	8ddJ
1A	.	1cc
.	2r	.
=9	=9	=9
0.r	2.a	2ff
.	.	1ee
.	4g	.
.	2a	.
.	2f	1dd
.	1e	.
.	.	2cc#i
=10	=10	=10
2r	1d	1dd
1B-	.	.
.	1.f	2r
2B-i	.	2.dd
1B-i	.	.
.	.	4cc
.	4e	2dd
.	4d	.
=11	=11	=11
1A	1c	2ee
.	.	2.cc
1F	1A	.
.	.	4b
.	.	2.a
1D	1d	.
.	.	4g
.	.	2f
=12	=12	=12
1.A	1.c	1.e
2F	2d	2f
1E	1e	1g
=13	=13	=13
2D	2f	2.a
2E	2.e	.
.	.	4g
2F	.	2a
.	4d	.
2D	1d	2f
1A	.	1e
.	2c#i	.
=14	=14	=14
1D	1d	1d
2.d	2.f	2r
.	.	1.dd
4c	4e	.
1B	2.f	.
.	4g	.
=15	=15	=15
1A	1a	2cc
.	.	4dd
.	.	2ff
1c	2g	.
.	.	4ee
.	2e	1ee
1d	1f	.
.	.	2dd
=16	=16	=16
0.AN	0.eN	1ee
.	.	0ccN
=17	=17	=17
1r	1r	1r
1d	0f	1a
2d	.	[1dd
[2A	.	.
=18	=18	=18
2A]	1f	2dd]
2d	.	2b
0A	1e	1cc
.	1c	2.ee
.	.	4dd
=19	=19	=19
2.G	2.d	2b
.	.	1a
4F	4e	.
1D	2.f	.
.	.	1dd
.	4d	.
1A	1e	.
.	.	2cc#i
=20	=20	=20
1.D	1d	2dd
.	.	1ff
.	1.a	.
1A	.	2ee
.	.	2cc
2d	2f	2dd
=21	=21	=21
2c	2g	1ee
2A	1a	.
2F	.	2a
2G	2d	2b
2c	2.e	2cc
[2d	.	[2a
.	4f	.
=22	=22	=22
4d]	1d	2a]
4c	.	.
4B	.	2f
4A	.	.
2G	2B	2g
2F	2c	1a
1D	1d	.
.	.	2dd
=23	=23	=23
2r	2A	2cc
2E	2G	2.b
1F	1c	.
.	.	4a
.	.	1a
2G	1B	.
2E	.	2g
=24	=24	=24
2F	1.A	0a
2D	.	.
2.F	.	.
.	1d	.
4G	.	.
1E	.	1r
.	2c#i	.
=25	=25	=25
0.D	1.d	0dd
.	2e	.
.	2f	1dd
.	2g	.
=26	=26	=26
0A	1e	0cc
.	2r	.
.	2.e	.
1A	.	1cc
.	4c	.
.	2e	.
=27	=27	=27
1D	2d	1ff
.	2.a	.
2r	.	2ee
.	4g	.
2A	2e	2.ee
1d	1f	.
.	.	4dd
.	.	4dd
.	.	4cc
=28	=28	=28
1c	2e	2.ee
.	1g	.
.	.	4dd
2G	.	4b
.	.	4cc
2.B	2f	2.dd
.	1d	.
4A	.	4cc
4G	.	4b
4F	.	4a
=29	=29	=29
2E	1e	2g
1A	.	2.cc
.	2c	.
.	.	4a
2G	2d	2b
2E	2e	2cc
[2D	2f	[2dd
=30	=30	=30
2D]	1d	4dd]
.	.	4ee
2D	.	2ff
2A	2e	4ee
.	.	2ee
2d	2f	.
.	.	4dd
2c	2g	2.ee
[2A	[2a	.
.	.	4ff
=31	=31	=31
2A]	2a]	4ee
.	.	8ddL
.	.	8ccJ
2r	2g	2b
2d	2f	2a
2B	2d	1dd
1A	1e	.
.	.	2cc#i
=32	=32	=32
0.Dl	0.dl	0.ddl
==	==	==
*-	*-	*-
!!!RDF**kern: l=long note in original notation
!!!RDF**kern: i=editorial accidental
!!!RDF**kern: N=signum congruentiae
!!!ENC:	Chris Gage 04-15-2015
!!!END:	2015/05/12/
!!!EED:	Jesse Rodin
!!!EEV:	2015/09/21/
!!!ONB:	Translated from MusicXML and edited on 2015/09/21/ by Craig Sapp
!!muse2ps: C^@{COM}^i2I150v95,95,150Q16
